build/img/icon-lightning.svg

<svg width="12" height="16" viewBox="0 0 12 16" fill="none" xmlns="http://www.w3.org/2000/svg">
<path d="M4.58568 15.9539C4.65456 15.9815 4.72343 15.9952 4.79231 15.9952C4.97139 15.9952 5.15047 15.9126 5.26068 15.7473L11.1703 7.20648C11.2943 7.04118 11.3081 6.807 11.2117 6.62792C11.1152 6.44883 10.9224 6.32485 10.7158 6.32485L7.05149 6.2973L8.1122 0.676915C8.1673 0.428957 8.02954 0.167223 7.79536 0.057019C7.56118 -0.0531847 7.28567 0.0156926 7.12036 0.222325L0.852527 8.11567C0.714773 8.28097 0.687222 8.51515 0.78365 8.70801C0.880078 8.90087 1.07293 9.02485 1.29334 9.02485L5.34333 9.0524L4.25507 15.334C4.19997 15.5957 4.33772 15.8575 4.58568 15.9539ZM2.45048 7.90903L6.58312 2.70191L5.81169 6.76567C5.78414 6.93098 5.82547 7.09628 5.93567 7.23404C6.04588 7.35802 6.19741 7.44067 6.36271 7.44067L9.6275 7.45444L5.78414 13.0197L6.54179 8.58403C6.56934 8.41873 6.52802 8.25342 6.41781 8.12944C6.32139 8.00546 6.16986 7.93658 6.00455 7.93658L2.45048 7.90903Z" fill="#9BD2F4"/>
<path d="M2.45048 7.90903L6.58312 2.70191L5.81169 6.76567C5.78414 6.93098 5.82547 7.09628 5.93567 7.23404C6.04588 7.35802 6.19741 7.44067 6.36271 7.44067L9.6275 7.45444L5.78414 13.0197L6.54179 8.58403C6.56934 8.41873 6.52802 8.25342 6.41781 8.12944C6.32139 8.00546 6.16986 7.93658 6.00455 7.93658L2.45048 7.90903Z" fill="#9BD2F4"/>
</svg>

<svg width="12" height="16" fill="none" xmlns="http://www.w3.org/2000/svg"><path d="M4.586 15.954a.558.558 0 00.675-.207l5.91-8.54a.55.55 0 00.04-.58.575.575 0 00-.495-.302L7.05 6.297 8.112.677a.564.564 0 00-.317-.62.557.557 0 00-.675.165L.853 8.116a.547.547 0 00-.07.592c.097.193.29.317.51.317l4.05.027-1.088 6.282a.541.541 0 00.33.62zM2.45 7.909l4.133-5.207-.771 4.064a.584.584 0 00.124.468c.11.124.261.207.427.207l3.264.013-3.843 5.566.758-4.436a.542.542 0 00-.124-.455.516.516 0 00-.413-.192L2.45 7.909z" fill="#9BD2F4"/><path d="M2.45 7.909l4.133-5.207-.771 4.064a.584.584 0 00.124.468c.11.124.261.207.427.207l3.264.013-3.843 5.566.758-4.436a.542.542 0 00-.124-.455.516.516 0 00-.413-.192L2.45 7.909z" fill="#9BD2F4"/></svg>
